resources/haticons/SVG/twitch.svg

<!-- Generated by IcoMoon.io -->
<svg version="1.1" xmlns="http://www.w3.org/2000/svg" width="24" height="24" viewBox="0 0 24 24">
<title>twitch</title>
<path d="M2.25 0l-2.25 3.75v17.25h6v3h3l3-3h3.75l6.75-6.75v-14.25h-20.25zM19.5 12.75l-3.75 3.75h-3.75l-3 3v-3h-4.5v-13.5h15v9.75z"></path>
<path d="M14.25 6h2.25v6h-2.25v-6z"></path>
<path d="M9.75 6h2.25v6h-2.25v-6z"></path>
</svg>

<svg xmlns="http://www.w3.org/2000/svg" width="24" height="24"><path d="M2.25 0L0 3.75V21h6v3h3l3-3h3.75l6.75-6.75V0H2.25zM19.5 12.75l-3.75 3.75H12l-3 3v-3H4.5V3h15v9.75z"/><path d="M14.25 6h2.25v6h-2.25V6zm-4.5 0H12v6H9.75V6z"/></svg>
